Newaita-dark/actions/scalable/view-calendar-month.svg

<?xml version="1.0" encoding="UTF-8"?>
<svg xmlns="http://www.w3.org/2000/svg" xmlns:xlink="http://www.w3.org/1999/xlink" width="512pt" height="512pt" viewBox="0 0 512 512" version="1.1">
<defs>
<filter id="alpha" filterUnits="objectBoundingBox" x="0%" y="0%" width="100%" height="100%">
  <feColorMatrix type="matrix" in="SourceGraphic" values="0 0 0 0 1 0 0 0 0 1 0 0 0 0 1 0 0 0 1 0"/>
</filter>
<mask id="mask0">
  <g filter="url(#alpha)">
<rect x="0" y="0" width="512" height="512" style="fill:rgb(0%,0%,0%);fill-opacity:0.988235;stroke:none;"/>
  </g>
</mask>
<clipPath id="clip1">
  <rect x="0" y="0" width="512" height="512"/>
</clipPath>
<g id="surface5" clip-path="url(#clip1)">
<path style=" stroke:none;fill-rule:nonzero;fill:rgb(74.117649%,74.117649%,74.117649%);fill-opacity:1;" d="M 21.167969 131.011719 L 21.167969 448.542969 C 21.167969 471.996094 40.050781 490.878906 63.507812 490.878906 L 444.542969 490.878906 C 467.996094 490.878906 486.878906 471.996094 486.878906 448.542969 L 486.878906 131.011719 L 455.125 131.011719 L 455.125 437.957031 C 455.125 449.6875 445.683594 459.125 433.957031 459.125 L 74.089844 459.125 C 62.363281 459.125 52.921875 449.6875 52.921875 437.957031 L 52.921875 131.011719 Z M 21.167969 131.011719 "/>
</g>
<mask id="mask1">
  <g filter="url(#alpha)">
<rect x="0" y="0" width="512" height="512" style="fill:rgb(0%,0%,0%);fill-opacity:0.988235;stroke:none;"/>
  </g>
</mask>
<clipPath id="clip2">
  <rect x="0" y="0" width="512" height="512"/>
</clipPath>
<g id="surface8" clip-path="url(#clip2)">
<path style=" stroke:none;fill-rule:nonzero;fill:rgb(61.176473%,80.000001%,39.607844%);fill-opacity:1;" d="M 63.507812 25.167969 C 40.050781 25.167969 21.167969 44.050781 21.167969 67.507812 L 21.167969 131.011719 L 486.878906 131.011719 L 486.878906 67.507812 C 486.878906 44.050781 467.996094 25.167969 444.542969 25.167969 Z M 95.257812 46.335938 C 112.851562 46.335938 127.011719 60.5 127.011719 78.089844 C 127.011719 95.683594 112.851562 109.84375 95.257812 109.84375 C 77.667969 109.84375 63.507812 95.683594 63.507812 78.089844 C 63.507812 60.5 77.667969 46.335938 95.257812 46.335938 Z M 412.789062 46.335938 C 430.378906 46.335938 444.542969 60.5 444.542969 78.089844 C 444.542969 95.683594 430.378906 109.84375 412.789062 109.84375 C 395.199219 109.84375 381.035156 95.683594 381.035156 78.089844 C 381.035156 60.5 395.199219 46.335938 412.789062 46.335938 Z M 412.789062 46.335938 "/>
</g>
</defs>
<g id="surface1">
<use xlink:href="#surface5" mask="url(#mask0)"/>
<use xlink:href="#surface8" mask="url(#mask1)"/>
<path style=" stroke:none;fill-rule:nonzero;fill:rgb(74.117649%,74.117649%,74.117649%);fill-opacity:1;" d="M 127.011719 173.351562 C 109.421875 173.351562 95.257812 187.511719 95.257812 205.101562 L 95.257812 385.035156 C 95.257812 402.628906 109.421875 416.789062 127.011719 416.789062 L 381.035156 416.789062 C 398.628906 416.789062 412.789062 402.628906 412.789062 385.035156 L 412.789062 205.101562 C 412.789062 187.511719 398.628906 173.351562 381.035156 173.351562 Z M 137.597656 205.101562 L 370.453125 205.101562 C 376.316406 205.101562 381.035156 209.824219 381.035156 215.6875 L 381.035156 374.453125 C 381.035156 380.316406 376.316406 385.035156 370.453125 385.035156 L 137.597656 385.035156 C 131.734375 385.035156 127.011719 380.316406 127.011719 374.453125 L 127.011719 215.6875 C 127.011719 209.824219 131.734375 205.101562 137.597656 205.101562 Z M 137.597656 205.101562 "/>
</g>
</svg>

<svg xmlns="http://www.w3.org/2000/svg" xmlns:xlink="http://www.w3.org/1999/xlink" width="512pt" height="512pt" viewBox="0 0 512 512"><defs><filter id="a" filterUnits="objectBoundingBox" x="0%" y="0%" width="100%" height="100%"><feColorMatrix in="SourceGraphic" values="0 0 0 0 1 0 0 0 0 1 0 0 0 0 1 0 0 0 1 0"/></filter><mask id="e"><path fill-opacity=".988" d="M0 0h512v512H0z" filter="url(#a)"/></mask><clipPath id="b"><path d="M0 0h512v512H0z"/></clipPath><g id="d" clip-path="url(#b)"><path d="M21.168 131.012v317.531c0 23.453 18.883 42.336 42.34 42.336h381.035c23.453 0 42.336-18.883 42.336-42.336V131.012h-31.754v306.945a21.12 21.12 0 0 1-21.168 21.168H74.09a21.12 21.12 0 0 1-21.168-21.168V131.012zm0 0" fill="#bdbdbd"/></g><mask id="g"><path fill-opacity=".988" d="M0 0h512v512H0z" filter="url(#a)"/></mask><clipPath id="c"><path d="M0 0h512v512H0z"/></clipPath><g id="f" clip-path="url(#c)"><path d="M63.508 25.168c-23.457 0-42.34 18.883-42.34 42.34v63.504h465.71V67.508c0-23.457-18.882-42.34-42.335-42.34zm31.75 21.168c17.594 0 31.754 14.164 31.754 31.754a31.682 31.682 0 0 1-31.754 31.754c-17.59 0-31.75-14.16-31.75-31.754 0-17.59 14.16-31.754 31.75-31.754zm317.531 0c17.59 0 31.754 14.164 31.754 31.754 0 17.594-14.164 31.754-31.754 31.754-17.59 0-31.754-14.16-31.754-31.754 0-17.59 14.164-31.754 31.754-31.754zm0 0" fill="#9ccc65"/></g></defs><use xlink:href="#d" mask="url(#e)"/><use xlink:href="#f" mask="url(#g)"/><path d="M127.012 173.352c-17.59 0-31.754 14.16-31.754 31.75v179.933c0 17.594 14.164 31.754 31.754 31.754h254.023a31.682 31.682 0 0 0 31.754-31.754V205.102c0-17.59-14.16-31.75-31.754-31.75zm10.586 31.75h232.855a10.561 10.561 0 0 1 10.582 10.585v158.766a10.558 10.558 0 0 1-10.582 10.582H137.598a10.561 10.561 0 0 1-10.586-10.582V215.688a10.564 10.564 0 0 1 10.586-10.586zm0 0" fill="#bdbdbd"/></svg>
